src/icons/svgs/16/tags.svg

<svg width="16" height="16" viewBox="0 0 16 16" fill="none" xmlns="http://www.w3.org/2000/svg">
<path d="M13.9835 5.40556L10.4912 2.16696C10.2479 1.94061 9.85629 1.94598 9.61772 2.17924C9.38008 2.4125 9.38569 2.78546 9.63059 3.01258L13.1177 6.24627C13.5331 6.64305 13.7647 7.17586 13.7647 7.74059C13.7647 8.30532 13.5339 8.83641 13.1136 9.23712L10.239 11.9969C9.9985 12.2279 9.99932 12.6007 10.2414 12.8303C10.3574 12.9391 10.5137 13.0001 10.6765 12.9999C10.8353 12.9999 10.9938 12.942 11.1145 12.8261L13.9891 10.0688C14.6397 9.44705 15 8.6196 15 7.74059C15 6.86158 14.6397 6.03167 13.9835 5.40556ZM12.1074 6.75354L7.54706 2.40268C7.31544 2.1812 6.85735 2 6.52794 2H1.72059C1.32272 2 1 2.3079 1 2.6875V7.27407C1 7.58738 1.18995 8.02492 1.42206 8.24639L5.98235 12.5973C6.54518 13.1342 7.4575 13.1342 8.02059 12.5973L12.1074 8.69822C12.671 8.16045 12.671 7.29126 12.1074 6.75354ZM3.88235 5.53569C3.42761 5.53569 3.05882 5.18409 3.05882 4.74998C3.05882 4.31588 3.42761 3.96427 3.88235 3.96427C4.3371 3.96427 4.70588 4.31588 4.70588 4.74998C4.70588 5.18458 4.33787 5.53569 3.88235 5.53569Z" fill="black"/>
</svg>

<svg width="16" height="16" viewBox="0 0 16 16" xmlns="http://www.w3.org/2000/svg">
    <path d="m13.983 5.406-3.492-3.239a.64.64 0 0 0-.873.012.57.57 0 0 0 .013.834l3.487 3.233c.415.397.647.93.647 1.495 0 .564-.231 1.095-.651 1.496l-2.875 2.76a.57.57 0 0 0 .002.833c.116.11.273.17.436.17a.63.63 0 0 0 .438-.174l2.874-2.757A3.202 3.202 0 0 0 15 7.74c0-.88-.36-1.71-1.017-2.335zm-1.876 1.348-4.56-4.351C7.315 2.18 6.857 2 6.527 2H1.722C1.323 2 1 2.308 1 2.688v4.586c0 .313.19.75.422.972l4.56 4.351a1.491 1.491 0 0 0 2.039 0l4.086-3.899a1.33 1.33 0 0 0 0-1.944zM3.882 5.536c-.454 0-.823-.352-.823-.786 0-.434.369-.786.823-.786.455 0 .824.352.824.786 0 .435-.368.786-.824.786z"/>
</svg>
